icons/desktop/16/svg/presentation-mode-16.svg

<svg width="16" height="16" viewBox="0 0 16 16" fill="none" xmlns="http://www.w3.org/2000/svg">
<path d="M6.09961 5.15234C6.09961 4.47541 6.83195 4.04992 7.41992 4.38574L10.6553 6.23438C11.2478 6.57345 11.2478 7.42655 10.6553 7.76562L7.41895 9.61426C6.83097 9.9501 6.09961 9.5246 6.09961 8.84766V5.15234Z" fill="black"/>
<path fill-rule="evenodd" clip-rule="evenodd" d="M8 1C9.4553 1 11.0559 1.05884 12.7773 1.21289L13.5225 1.28516L13.7812 1.32422C15.0525 1.57884 16 2.69884 16 4.02539V9.97461C16 11.3741 14.9513 12.5653 13.5459 12.7119C13.4459 12.7223 13.3453 12.7313 13.2441 12.7412L13.8994 13.875C14.1063 14.233 13.9829 14.6925 13.625 14.8994C13.5071 14.9673 13.3779 15 13.25 15C12.991 15 12.7386 14.865 12.5996 14.625L11.5908 12.8779C10.4548 12.9543 9.25574 13 8 13C6.88444 13 5.68354 12.9636 4.4082 12.8779L3.40039 14.625C3.26139 14.865 3.009 15 2.75 15C2.62307 15 2.49395 14.9683 2.375 14.8994C2.01606 14.6924 1.89373 14.233 2.10059 13.875L2.75488 12.7412C2.66282 12.7322 2.57026 12.7245 2.47754 12.7148C1.07827 12.5696 0 11.3897 0 9.97461V4.02539C0 2.62588 1.04865 1.43465 2.4541 1.28809C4.14156 1.11265 5.99888 1 8 1ZM8 2.5C6.05512 2.5 4.24992 2.60971 2.60938 2.78027C1.9811 2.84597 1.5 3.38109 1.5 4.02539V9.97461C1.5 10.6135 1.99009 11.1559 2.63281 11.2227C4.58244 11.4247 6.3833 11.5 8 11.5C9.94487 11.5 11.7501 11.3903 13.3906 11.2197C14.0189 11.154 14.5 10.6189 14.5 9.97461V4.02539C14.5 3.38652 14.0099 2.84407 13.3672 2.77734C11.4176 2.5753 9.6167 2.5 8 2.5Z" fill="black"/>
</svg>

<!-- This Source Code Form is subject to the terms of the Mozilla Public
   - License, v. 2.0. If a copy of the MPL was not distributed with this
   - file, You can obtain one at http://mozilla.org/MPL/2.0/. -->
<svg xmlns="http://www.w3.org/2000/svg" width="16" height="16" fill="context-fill" fill-opacity="context-fill-opacity" viewBox="0 0 16 16">
    <path d="M6.1 5.152a.883.883 0 0 1 1.32-.766l3.235 1.848a.882.882 0 0 1 0 1.532L7.42 9.614a.882.882 0 0 1-1.32-.766z" />
    <path fill-rule="evenodd" d="M8 1c1.455 0 3.056.059 4.777.213l.746.072.258.04A2.76 2.76 0 0 1 16 4.024v5.95c0 1.4-1.049 2.59-2.454 2.737l-.302.03.655 1.133a.75.75 0 0 1-1.3.75l-1.008-1.747A54 54 0 0 1 8 13a54 54 0 0 1-3.592-.122L3.4 14.625a.751.751 0 0 1-1.3-.75l.655-1.134q-.138-.012-.277-.026A2.76 2.76 0 0 1 0 9.975v-5.95c0-1.4 1.049-2.59 2.454-2.737A54 54 0 0 1 8 1m0 1.5c-1.945 0-3.75.11-5.39.28-.629.066-1.11.601-1.11 1.245v5.95c0 .639.49 1.18 1.133 1.248a52 52 0 0 0 10.758-.003c.628-.066 1.109-.601 1.109-1.245v-5.95c0-.638-.49-1.18-1.133-1.248A52 52 0 0 0 8 2.5" clip-rule="evenodd" />
</svg>
